svg/media/music_3_line.svg

<?xml version="1.0" encoding="UTF-8"?>
<svg width="24px" height="24px" viewBox="0 0 24 24" version="1.1" xmlns="http://www.w3.org/2000/svg" xmlns:xlink="http://www.w3.org/1999/xlink">
    <title>music_line</title>
    <g id="页面-1" stroke="none" stroke-width="1" fill="none" fill-rule="evenodd">
        <g id="Media" transform="translate(-912.000000, -96.000000)" fill-rule="nonzero">
            <g id="music_line" transform="translate(912.000000, 96.000000)">
                 <path d="M24,0 L24,24 L0,24 L0,0 L24,0 Z M12.5934901,23.257841 L12.5819402,23.2595131 L12.5108777,23.2950439 L12.4918791,23.2987469 L12.4918791,23.2987469 L12.4767152,23.2950439 L12.4056548,23.2595131 C12.3958229,23.2563662 12.3870493,23.2590235 12.3821421,23.2649074 L12.3780323,23.275831 L12.360941,23.7031097 L12.3658947,23.7234994 L12.3769048,23.7357139 L12.4804777,23.8096931 L12.4953491,23.8136134 L12.4953491,23.8136134 L12.5071152,23.8096931 L12.6106902,23.7357139 L12.6232938,23.7196733 L12.6232938,23.7196733 L12.6266527,23.7031097 L12.609561,23.275831 C12.6075724,23.2657013 12.6010112,23.2592993 12.5934901,23.257841 L12.5934901,23.257841 Z M12.8583906,23.1452862 L12.8445485,23.1473072 L12.6598443,23.2396597 L12.6498822,23.2499052 L12.6498822,23.2499052 L12.6471943,23.2611114 L12.6650943,23.6906389 L12.6699349,23.7034178 L12.6699349,23.7034178 L12.678386,23.7104931 L12.8793402,23.8032389 C12.8914285,23.8068999 12.9022333,23.8029875 12.9078286,23.7952264 L12.9118235,23.7811639 L12.8776777,23.1665331 C12.8752882,23.1545897 12.8674102,23.1470016 12.8583906,23.1452862 L12.8583906,23.1452862 Z M12.1430473,23.1473072 C12.1332178,23.1423925 12.1221763,23.1452606 12.1156365,23.1525954 L12.1099173,23.1665331 L12.0757714,23.7811639 C12.0751323,23.7926639 12.0828099,23.8018602 12.0926481,23.8045676 L12.108256,23.8032389 L12.3092106,23.7104931 L12.3186497,23.7024347 L12.3186497,23.7024347 L12.3225043,23.6906389 L12.340401,23.2611114 L12.337245,23.2485176 L12.337245,23.2485176 L12.3277531,23.2396597 L12.1430473,23.1473072 Z" id="MingCute" fill-rule="nonzero"></path>
                <path d="M10.9752,3.00175 C11.0974,3.54034 10.7599,4.07603 10.2213,4.19824 C6.65879,5.00662 4,8.19401 4,12 C4,16.4183 7.58172,20 12,20 C16.4183,20 20,16.4183 20,12 C20,10.3629 19.5093,8.84349 18.6673,7.577 C18.3615,7.11709 18.4864,6.49638 18.9463,6.19059 C19.4062,5.88481 20.0269,6.00975 20.3327,6.46965 C21.3862,8.05408 22,9.95689 22,12 C22,17.5229 17.5228,22 12,22 C6.47715,22 2,17.5229 2,12 C2,7.23967 5.32525,3.25837 9.77871,2.24783 C10.3173,2.12561 10.853,2.46315 10.9752,3.00175 Z M13,3.01364 C13,2.36478353 13.5982782,1.89541052 14.2139913,2.02423338 L14.3295,2.0555 L17.3163,3.05135 C17.8402,3.22604 18.1233,3.79238 17.9487,4.31631 C17.7864786,4.80281643 17.2865158,5.08168566 16.7964566,4.97917536 L16.6837,4.94867 L15,4.3873 L15,12 C15,13.6569 13.6569,15 12,15 C10.3431,15 9,13.6569 9,12 C9,10.3431 10.3431,9 12,9 C12.28048,9 12.552,9.038496 12.8095424,9.11050112 L13,9.17071 L13,3.01364 Z" id="形状" fill="#09244B"></path>
            </g>
        </g>
    </g>
</svg>

<svg xmlns="http://www.w3.org/2000/svg" width="24" height="24"><g fill="none" fill-rule="nonzero"><path d="M24 0v24H0V0h24ZM12.593 23.258l-.011.002-.071.035-.02.004-.014-.004-.071-.035c-.01-.004-.019-.001-.024.005l-.004.01-.017.428.005.02.01.013.104.074.015.004.012-.004.104-.074.012-.016.004-.017-.017-.427c-.002-.01-.009-.017-.017-.018Zm.265-.113-.013.002-.185.093-.01.01-.003.011.018.43.005.012.008.007.201.093c.012.004.023 0 .029-.008l.004-.014-.034-.614c-.003-.012-.01-.02-.02-.022Zm-.715.002a.023.023 0 0 0-.027.006l-.006.014-.034.614c0 .012.007.02.017.024l.015-.002.201-.093.01-.008.004-.011.017-.43-.003-.012-.01-.01-.184-.092Z"/><path fill="#09244B" d="M10.975 3.002a1 1 0 0 1-.754 1.196 8 8 0 1 0 8.446 3.379 1 1 0 1 1 1.666-1.107A9.958 9.958 0 0 1 22 12c0 5.523-4.477 10-10 10S2 17.523 2 12c0-4.76 3.325-8.742 7.779-9.752a1 1 0 0 1 1.196.754ZM13 3.014a1.01 1.01 0 0 1 1.214-.99l.115.031 2.987.996a1 1 0 0 1-.52 1.928l-.112-.03L15 4.387V12a3 3 0 1 1-2.19-2.89l.19.06V3.015Z"/></g></svg>
